X:1
T:Wedding Reel
T:Donald Maclean's Farewell
W:Next: The Rookery
R:reel
M:4/4
L:1/8
K:D
DE|F2BF AFEF|D2DE FABd|e2fd efdB|ABde dBAG|
F2BF AFEF|D2DE FABd|e2fd efdB|ABde d2:|
B|A3f edfd|A3f edfd|ABdA BdAB|dBAF E2 DE|
F2BF AFEF|D2DE FABd|e2fd efdB|ABde d3:|


